src/images/dribbble-icon.svg

<?xml version="1.0" encoding="UTF-8"?>
<svg width="25px" height="24px" viewBox="0 0 25 24" version="1.1" xmlns="http://www.w3.org/2000/svg" xmlns:xlink="http://www.w3.org/1999/xlink">
    <!-- Generator: Sketch 52.1 (67048) - http://www.bohemiancoding.com/sketch -->
    <title>dribbble-icon</title>
    <desc>Created with Sketch.</desc>
    <defs>
        <polygon id="path-1" points="1.67247387e-05 0.068830662 23.9632056 0.068830662 23.9632056 24 1.67247387e-05 24"></polygon>
    </defs>
    <g id="Progress" stroke="none" stroke-width="1" fill="none" fill-rule="evenodd">
        <g id="Homepage--/-Layout" transform="translate(-323.000000, -7818.000000)">
            <g id="footer-bottom" transform="translate(0.000000, 7782.000000)">
                <g id="social" transform="translate(123.000000, 36.000000)">
                    <g id="dribbble-icon" transform="translate(200.800000, 0.000000)">
                        <path d="M22.7368421,12 C22.7368421,17.9297604 17.9297604,22.7368421 12,22.7368421 C6.07023961,22.7368421 1.26315789,17.9297604 1.26315789,12 C1.26315789,6.0701564 6.07023961,1.26315789 12,1.26315789 C17.9297604,1.26315789 22.7368421,6.0701564 22.7368421,12" id="Fill-1" fill="#EA4C89"></path>
                        <g id="Group-5">
                            <mask id="mask-2" fill="white">
                                <use xlink:href="#path-1"></use>
                            </mask>
                            <g id="Clip-4"></g>
                            <path d="M19.9034592,5.58682369 C19.6877937,5.87825226 17.9727554,8.07379233 14.1888669,9.61664948 C14.4269436,10.103423 14.6553199,10.5986425 14.8678077,11.0970397 C14.9431526,11.273653 15.0164906,11.44943 15.0882397,11.6244544 C18.4936474,11.1968028 21.8771456,11.8821826 22.2145672,11.95343 C22.1919889,9.54113728 21.3288251,7.32602927 19.9034592,5.58682369 M9.58329199,2.11359721 C9.86619094,2.4919108 11.7249784,5.01977143 13.4019679,8.09687247 C17.0411038,6.73472613 18.5817031,4.6667122 18.7657589,4.40497003 C16.9584836,2.80365993 14.5819819,1.82952753 11.9816195,1.82952753 C11.1559192,1.82952753 10.3529645,1.92837073 9.58329199,2.11359721 M1.96366829,9.95674704 C2.42142439,9.96276794 6.63781463,9.98099791 11.4249366,8.71150662 C9.72921533,5.70113728 7.90036516,3.17018258 7.63059512,2.80064948 C4.76748711,4.1493324 2.6272223,6.78523484 1.96366829,9.95674704 M4.37838606,18.8836599 C4.61027456,18.4874509 7.41894355,13.8430746 12.6971038,12.1392418 C12.8304836,12.0961756 12.9650341,12.0557854 13.1004209,12.017653 C12.8434453,11.4370537 12.563724,10.8557854 12.2707066,10.2832139 C7.15979373,11.8106843 2.20049059,11.7468794 1.75268571,11.7377645 C1.74950801,11.8414578 1.74741742,11.9454857 1.74741742,12.0500153 C1.74741742,14.6749631 2.74387735,17.0717854 4.37838606,18.8836599 M15.9792502,21.4581826 C15.8269714,20.5615693 15.2328251,17.4364683 13.7960028,13.7076878 C13.773508,13.7153812 13.7510132,13.7226564 13.7285185,13.7304334 C7.95605854,15.7392418 5.88403066,19.7369561 5.69980767,20.1129282 C7.4349993,21.4642871 9.61573798,22.2705031 11.9816195,22.2705031 C13.399292,22.2705031 14.7504836,21.9809143 15.9792502,21.4581826 M22.0862885,13.6723986 C21.7361561,13.5620153 18.918623,12.7227679 15.7115707,13.2353812 C17.0501352,16.9088864 17.5949436,19.9007749 17.699724,20.5225171 C19.9957798,18.9721338 21.6301213,16.5161059 22.0862885,13.6723986 M11.9816195,24.0000084 C5.37492962,24.0000084 1.67247387e-05,18.6322035 1.67247387e-05,12.0344613 C1.67247387e-05,5.43655192 5.37492962,0.068830662 11.9816195,0.068830662 C18.5882258,0.068830662 23.9632223,5.43655192 23.9632223,12.0344613 C23.9632223,18.6322035 18.5882258,24.0000084 11.9816195,24.0000084" id="Fill-3" fill="#C32361" mask="url(#mask-2)"></path>
                        </g>
                    </g>
                </g>
            </g>
        </g>
    </g>
</svg>

<svg width="25" height="24" xmlns="http://www.w3.org/2000/svg" xmlns:xlink="http://www.w3.org/1999/xlink"><defs><path id="a" d="M0 .069h23.963V24H0z"/></defs><g fill="none" fill-rule="evenodd"><path d="M23.537 12c0 5.93-4.807 10.737-10.737 10.737S2.063 17.93 2.063 12 6.87 1.263 12.8 1.263 23.537 6.07 23.537 12" fill="#EA4C89"/><g transform="translate(.8)"><mask id="b" fill="#fff"><use xlink:href="#a"/></mask><path d="M19.903 5.587c-.215.291-1.93 2.487-5.714 4.03a31.465 31.465 0 0 1 .9 2.007c3.405-.427 6.788.258 7.126.33a10.164 10.164 0 0 0-2.312-6.367M9.583 2.114a54.542 54.542 0 0 1 3.819 5.983c3.64-1.362 5.18-3.43 5.364-3.692a10.239 10.239 0 0 0-9.182-2.291m-7.62 7.843c.457.006 4.674.024 9.46-1.245A65.214 65.214 0 0 0 7.632 2.8a10.26 10.26 0 0 0-5.667 7.156m2.414 8.927c.232-.397 3.04-5.04 8.32-6.745.132-.043.267-.083.402-.121a34.257 34.257 0 0 0-.83-1.735C7.16 11.811 2.2 11.747 1.754 11.738a10.172 10.172 0 0 0 2.626 7.146m11.6 2.574c-.152-.896-.746-4.022-2.183-7.75l-.067.022c-5.773 2.01-7.845 6.007-8.03 6.383a10.191 10.191 0 0 0 6.283 2.158c1.417 0 2.768-.29 3.997-.813m6.107-7.786c-.35-.11-3.167-.95-6.374-.437 1.338 3.674 1.883 6.666 1.988 7.288a10.237 10.237 0 0 0 4.386-6.85M11.982 24C5.375 24 0 18.632 0 12.034 0 5.437 5.375.07 11.982.07c6.606 0 11.981 5.368 11.981 11.965C23.963 18.632 18.588 24 11.982 24" fill="#C32361" mask="url(#b)"/></g></g></svg>
